Front/img/common-section_why/icn-4.svg

<svg width="40" height="40" viewBox="0 0 40 40" fill="none" xmlns="http://www.w3.org/2000/svg">
<path d="M24.3126 16.0013C12.1568 17.3346 1.35156 13.5013 1.35156 8.66797C1.35156 4.5013 9.45546 1.16797 19.5853 1.16797C29.7152 1.16797 37.8191 4.5013 37.8191 8.66797C37.8191 10.668 35.962 12.5013 32.923 13.8346" stroke="#00181B" stroke-width="1.5" stroke-linecap="round" stroke-linejoin="round"/>
<path d="M37.8203 17.5013V8.66797" stroke="#00181B" stroke-width="1.5" stroke-linecap="round" stroke-linejoin="round"/>
<path d="M1.35156 8.66797V18.668C1.35156 22.668 8.78013 25.8346 18.2347 26.168" stroke="#00181B" stroke-width="1.5" stroke-linecap="round" stroke-linejoin="round"/>
<path d="M1.35156 18.668V28.668C1.35156 32.668 8.78013 35.8346 18.2347 36.168" stroke="#00181B" stroke-width="1.5" stroke-linecap="round" stroke-linejoin="round"/>
<path d="M23.1328 28.668C23.1328 27.3346 24.3146 26.168 25.6653 26.168H35.1198C36.4705 26.168 37.6523 27.3346 37.6523 28.668V36.168C37.6523 37.5013 36.4705 38.668 35.1198 38.668H25.6653C24.3146 38.668 23.1328 37.5013 23.1328 36.168V28.668V28.668Z" stroke="#FF8139" stroke-width="1.5" stroke-linecap="round" stroke-linejoin="round"/>
<path d="M30.3922 18.668C27.6909 18.668 25.4961 20.8346 25.4961 23.668V26.168H35.2883V23.668C35.2883 21.0013 33.0935 18.668 30.3922 18.668Z" stroke="#FF8139" stroke-width="1.5" stroke-linecap="round" stroke-linejoin="round"/>
<path d="M30.3902 32C30.0525 32 29.7148 32.3333 29.7148 32.6667C29.7148 33 30.0525 33.3333 30.3902 33.3333C30.7278 33.3333 31.0655 33 31.0655 32.6667C31.0655 32.3333 30.7278 32 30.3902 32Z" fill="#FF8139" stroke="#FF8139" stroke-width="1.5" stroke-linecap="round" stroke-linejoin="round"/>
</svg>

<svg xmlns="http://www.w3.org/2000/svg" fill="none" viewBox="0 0 40 40"><path stroke="#00181B" stroke-linecap="round" stroke-linejoin="round" stroke-width="1.5" d="M24.313 16.001c-12.156 1.334-22.961-2.5-22.961-7.333 0-4.167 8.103-7.5 18.233-7.5s18.234 3.333 18.234 7.5c0 2-1.857 3.833-4.896 5.167M37.82 17.501V8.668"/><path stroke="#00181B" stroke-linecap="round" stroke-linejoin="round" stroke-width="1.5" d="M1.352 8.668v10c0 4 7.428 7.167 16.883 7.5"/><path stroke="#00181B" stroke-linecap="round" stroke-linejoin="round" stroke-width="1.5" d="M1.352 18.668v10c0 4 7.428 7.167 16.883 7.5"/><path stroke="#FF8139" stroke-linecap="round" stroke-linejoin="round" stroke-width="1.5" d="M23.133 28.668c0-1.333 1.182-2.5 2.532-2.5h9.455c1.35 0 2.532 1.167 2.532 2.5v7.5c0 1.333-1.181 2.5-2.532 2.5h-9.455c-1.35 0-2.532-1.167-2.532-2.5v-7.5 0zM30.392 18.668c-2.701 0-4.896 2.167-4.896 5v2.5h9.792v-2.5c0-2.667-2.194-5-4.896-5z"/><path fill="#FF8139" stroke="#FF8139" stroke-linecap="round" stroke-linejoin="round" stroke-width="1.5" d="M30.39 32c-.338 0-.675.333-.675.667 0 .333.337.666.675.666s.675-.333.675-.666c0-.334-.337-.667-.675-.667z"/></svg>
